X:565
T:Bourre
L:1/8
M:2/4
O:France
R:Bourre
Z:Richard Robinson 
%%TUNEURL: http://www.leeds.ac.uk/music/Info/RRTuneBk/gettune/00000b86.html
%%ID:00000b86
K:C mixolydian
gf2e| d>cBc| d>cde| d/e/d/c/ BG| gf2e| d>cBc| d>edB| c4 ::
ed2e| c2Bc| dcde| d/e/d/c/ BG| ed2e c2Bc| d>cde| c4 :|
